brandFactory_export/2.Regular/Larga distancia_2Regular.svg

<?xml version="1.0" encoding="UTF-8"?>
<svg width="24px" height="24px" viewBox="0 0 24 24" version="1.1" xmlns="http://www.w3.org/2000/svg" xmlns:xlink="http://www.w3.org/1999/xlink">
    <title>2.Regular/Larga distancia_2Regular</title>
    <g id="Symbols" stroke="none" stroke-width="1" fill="none" fill-rule="evenodd">
        <g id="2.Regular/Larga-distancia_2Regular" fill="#5CB615" fill-rule="nonzero">
            <path d="M11.6773109,0.0134453782 C11.7140311,0.0134453782 11.7500235,0.0165380655 11.7850422,0.022477385 L11.8252101,0.0201680672 L11.8252101,0.0201680672 L12.0262621,0.0258528628 L12.0262621,0.0258528628 L11.8252101,0.0235294118 C18.3260504,0.0268907563 23.5966387,5.30420168 23.5899224,11.805042 C23.5865546,16.5310924 20.7596639,20.7966387 16.4067227,22.6386555 C14.986601,23.2383356 13.459894,23.5537882 11.9184174,23.5628758 C11.844723,23.5932433 11.7629982,23.610084 11.6773109,23.610084 C11.3243697,23.610084 11.0386555,23.3243697 11.0386555,22.9714286 L11.0386555,0.65210084 C11.0386555,0.299159664 11.3243697,0.0134453782 11.6773109,0.0134453782 Z M5.69747899,0.621848739 C7.94285714,0.672268908 9.12605042,1.86554622 9.12605042,4.06386555 C9.12941176,4.46386555 9.08235294,4.8605042 8.98487395,5.25042017 C8.80672269,6.01008403 8.42689076,6.59831933 7.85882353,7.00168067 C7.2907563,7.40504202 6.55462185,7.60672269 5.65714286,7.60672269 C5.46218487,7.60672269 5.26386555,7.59663866 5.06890756,7.57310924 C5.01848739,7.61344538 4.8,7.84201681 4.65210084,8.80672269 C4.50756303,9.73445378 4.4907563,10.9411765 4.4907563,11.7647059 L4.4907563,11.8722689 C4.4907563,12.6991597 4.50756303,13.902521 4.65210084,14.8302521 C4.80336134,15.794958 5.01848739,16.0235294 5.06890756,16.0638655 C5.26386555,16.0403361 5.45882353,16.0302521 5.65714286,16.0302521 C6.5512605,16.0302521 7.29411765,16.2319328 7.85882353,16.6352941 C8.42352941,17.0386555 8.80672269,17.6302521 8.98487395,18.3865546 C9.08235294,18.7731092 9.12941176,19.1731092 9.12605042,19.5731092 C9.12605042,21.7747899 7.9394958,22.9647059 5.69747899,23.0151261 L5.6302521,23.0218487 C5.25042017,23.0218487 4.83361345,22.9546218 4.68907563,22.9310924 L4.67226891,22.9277311 L4.64201681,22.9210084 C3.33781513,22.6823529 2.16470588,21.4890756 1.33445378,19.5596639 C0.480672269,17.5697479 0.0268907561,14.9142857 0.0268907561,11.8756303 L0.0268907561,11.7680672 C0.0268907561,8.72941176 0.477310924,6.07394958 1.33445378,4.08067227 C2.16470588,2.1512605 3.33781513,0.957983193 4.64201681,0.719327731 L4.67226891,0.715966387 L4.68907563,0.712605042 C4.84033613,0.68907563 5.30084034,0.611764706 5.69747899,0.621848739 Z M12.3166571,16.8962196 L12.3161985,22.2310434 C12.7500217,22.1341819 13.1778669,21.9090973 13.5932773,21.5596639 C14.194958,21.0554622 14.7394958,20.3193277 15.2134454,19.3747899 C15.5279555,18.7499354 15.7985841,18.0602267 16.0223322,17.320359 C14.846849,17.0668944 13.6046573,16.924959 12.3166571,16.8962196 Z M5.67058824,1.89579832 C5.48571429,1.89243697 5.22352941,1.91596639 4.89747899,1.9697479 L4.8605042,1.97647059 C4.00672269,2.14117647 3.15294118,3.08907563 2.50756303,4.58487395 C1.95966387,5.86218487 1.30420168,8.14453782 1.30420168,11.7613445 L1.30420168,11.8756303 C1.30420168,15.492437 1.95966387,17.7747899 2.50756303,19.0521008 C3.14957983,20.5478992 4.00672269,21.4957983 4.85714286,21.6605042 L4.86386555,21.6638655 L4.90084034,21.6705882 C5.2302521,21.7243697 5.48907563,21.7478992 5.67394958,21.7445378 C6.45714286,21.7277311 7.02857143,21.5394958 7.36806723,21.1865546 C7.69747899,20.8436975 7.85546218,20.3193277 7.85546218,19.5798319 C7.85882353,19.287395 7.82521008,18.9983193 7.75462185,18.712605 C7.7512605,18.7058824 7.7512605,18.6991597 7.7512605,18.692437 C7.61344538,18.1008403 7.24705882,17.3142857 5.66722689,17.3142857 C5.48907563,17.3142857 5.31428571,17.3243697 5.13613445,17.3478992 C5.10252101,17.3512605 5.06890756,17.3546218 5.03529412,17.3512605 C4.70588235,17.3378151 4.23865546,17.1966387 3.88235294,16.5983193 C3.68739496,16.2756303 3.54285714,15.8420168 3.43865546,15.2806723 C3.28739496,14.4672269 3.22016807,13.4184874 3.22016807,11.8756303 L3.22016807,11.7680672 C3.22016807,10.2252101 3.28739496,9.17310924 3.43865546,8.36302521 C3.54285714,7.80168067 3.68739496,7.36806723 3.88235294,7.04537815 C4.23865546,6.44705882 4.70588235,6.30588235 5.03529412,6.29243697 C5.06890756,6.29243697 5.10252101,6.29243697 5.13613445,6.29579832 C5.31092437,6.31932773 5.48907563,6.32941176 5.66722689,6.32941176 C7.25042017,6.32941176 7.61680672,5.54285714 7.7512605,4.9512605 C7.7512605,4.94453782 7.75462185,4.93781513 7.75462185,4.93109244 C7.82521008,4.6487395 7.85882353,4.35630252 7.85546218,4.06386555 C7.85546218,3.3210084 7.69411765,2.79663866 7.36806723,2.45714286 C7.02521008,2.10420168 6.45378151,1.91596639 5.67058824,1.89579832 Z M17.2635857,17.6315579 L17.2485785,17.6811618 C17.0030215,18.4968086 16.704467,19.2585582 16.3563025,19.9495798 C16.0116072,20.6340321 15.6291851,21.2282303 15.2166253,21.72612 C16.995032,21.1182665 18.5584637,20.0468578 19.7621989,18.6557756 C19.042486,18.2545165 18.195532,17.9075241 17.2635857,17.6315579 Z M22.2957475,12.4542526 L18.0544288,12.4546522 C18.0152645,13.8269788 17.854724,15.1559368 17.5826612,16.3925645 C18.6840039,16.7119768 19.6860014,17.1274347 20.5479201,17.6266547 C21.5501124,16.1306309 22.1779048,14.361392 22.2957475,12.4542526 Z M16.7766029,12.4544511 L12.3158908,12.4534454 L12.3165506,15.6186462 C13.7216432,15.6484402 15.0811341,15.8057374 16.3428299,16.0774382 C16.5911745,14.9432675 16.7384582,13.7206499 16.7766029,12.4544511 Z M16.3985242,7.76451778 L16.1259512,7.82340492 C14.9258718,8.06725697 13.6414848,8.20872167 12.3165506,8.23681598 L12.3158908,11.1764454 L16.7779989,11.1767986 C16.7448684,9.98990794 16.6159384,8.84028869 16.3985242,7.76451778 Z M20.67359,6.15499916 L20.4117705,6.30631808 C19.595356,6.76317657 18.6592637,7.14688252 17.6368966,7.44905239 C17.8792425,8.62583363 18.0214982,9.88198521 18.0557509,11.1766675 L22.2979687,11.177042 C22.1927669,9.38283579 21.6289128,7.65513619 20.67359,6.15499916 Z M12.3161985,1.3521499 L12.3158908,6.95844538 L12.3893534,6.95760971 C13.6790153,6.92499947 14.9222295,6.77999472 16.0978526,6.52259545 C15.8608175,5.68243084 15.5644612,4.90462346 15.2134454,4.20840336 C14.7394958,3.26386555 14.1915966,2.52773109 13.5932773,2.02352941 C13.1778669,1.67409597 12.7500217,1.44901141 12.3161985,1.3521499 Z M15.2179971,1.85779336 L15.3196068,1.98414626 C15.6929541,2.45508925 16.0404654,3.00646412 16.3563025,3.63361345 C16.7464383,4.40912733 17.0742821,5.2726077 17.3350679,6.20082052 C18.3063368,5.91055835 19.1829247,5.5420496 19.9189675,5.11416972 C19.7055406,4.85769226 19.4808786,4.61029039 19.2436975,4.37310924 C18.1023566,3.22590534 16.721257,2.37072986 15.2179971,1.85779336 Z" id="Larga-distancia_2Regular"></path>
        </g>
    </g>
</svg>

<svg width="24" height="24" viewBox="0 0 24 24" xmlns="http://www.w3.org/2000/svg"><path d="M11.677.013c.037 0 .073.004.108.01l.04-.003.201.006-.2-.002c6.5.003 11.77 5.28 11.764 11.781a11.77 11.77 0 01-7.183 10.834c-1.42.6-2.947.915-4.489.924a.638.638 0 01-.88-.591V.651c0-.353.286-.639.64-.639zm-5.98.609c2.246.05 3.43 1.244 3.43 3.442.002.4-.045.797-.142 1.186-.178.76-.558 1.348-1.126 1.752-.568.403-1.304.605-2.202.605a4.93 4.93 0 01-.588-.034c-.05.04-.269.269-.417 1.234-.144.927-.161 2.134-.161 2.958v.107c0 .827.017 2.03.161 2.958.151.965.366 1.194.417 1.234a4.89 4.89 0 01.588-.034c.894 0 1.637.202 2.202.605.565.404.948.995 1.126 1.752.097.386.144.786.141 1.186 0 2.202-1.187 3.392-3.429 3.442l-.067.007c-.38 0-.796-.067-.94-.09l-.018-.004-.03-.007c-1.304-.239-2.477-1.432-3.308-3.361C.481 17.57.027 14.914.027 11.876v-.108c0-3.039.45-5.694 1.307-7.687C2.164 2.15 3.338.958 4.642.719l.03-.003.017-.003C4.84.689 5.301.612 5.697.622zm6.62 16.274v5.335c.433-.097.86-.322 1.276-.671.602-.505 1.146-1.24 1.62-2.185.315-.625.586-1.315.81-2.055a19.683 19.683 0 00-3.706-.424zm-6.646-15a4.545 4.545 0 00-.774.074l-.036.006c-.854.165-1.708 1.113-2.353 2.609-.548 1.277-1.204 3.56-1.204 7.176v.115c0 3.616.656 5.899 1.204 7.176.642 1.496 1.499 2.444 2.35 2.609l.006.003.037.007c.33.053.588.077.773.074.783-.017 1.355-.206 1.694-.558.33-.343.487-.868.487-1.607a3.437 3.437 0 00-.1-.867c-.004-.007-.004-.014-.004-.02-.138-.592-.504-1.379-2.084-1.379-.178 0-.353.01-.53.034a.506.506 0 01-.102.003c-.33-.013-.796-.154-1.153-.753-.195-.322-.34-.756-.443-1.317-.152-.814-.219-1.863-.219-3.405v-.108c0-1.543.067-2.595.219-3.405.104-.561.248-.995.443-1.318.357-.598.824-.74 1.153-.753.034 0 .068 0 .101.004.175.023.353.033.531.033 1.583 0 1.95-.786 2.084-1.378 0-.006.004-.013.004-.02.07-.282.104-.575.1-.867 0-.743-.16-1.267-.487-1.607-.343-.353-.914-.541-1.697-.561zm11.593 15.736l-.015.05a14.055 14.055 0 01-.893 2.268 9.42 9.42 0 01-1.14 1.776 10.514 10.514 0 004.546-3.07 12.39 12.39 0 00-2.498-1.024zm5.032-5.178h-4.242c-.039 1.373-.2 2.702-.471 3.939 1.101.319 2.103.734 2.965 1.234a10.43 10.43 0 001.748-5.173zm-5.52 0h-4.46v3.165c1.406.03 2.765.187 4.027.458a19.81 19.81 0 00.434-3.623zm-.377-4.69l-.273.06c-1.2.243-2.485.385-3.81.413v2.94h4.462a20.134 20.134 0 00-.38-3.412zm4.275-1.609l-.262.151c-.817.457-1.753.84-2.775 1.143.242 1.177.384 2.433.419 3.728h4.242a10.494 10.494 0 00-1.624-5.022zm-8.358-4.803v5.606h.073a19.685 19.685 0 003.709-.435 12.98 12.98 0 00-.885-2.315c-.474-.944-1.021-1.68-1.62-2.184-.415-.35-.843-.575-1.277-.672zm2.902.506l.102.126c.373.471.72 1.022 1.036 1.65.39.775.718 1.639.98 2.567.97-.29 1.847-.659 2.583-1.087a10.971 10.971 0 00-.675-.74 10.43 10.43 0 00-4.026-2.516z" fill="#5CB615" fill-rule="nonzero"/></svg>
